X:28
T: Ritter und Magd
N: Q0055a
O: Mitteleuropa, Deutschland (BRD) , Nord - Bayern, Franken
N: Dritte Zeile = Refrain auf sinnfreie Silben.
R: Ballade, Betrug, Schwangerschaft, Tod, Selbstmord, Herr und Magd
M: 6/8
L: 1/16
K: F
FA | c3BA2f2e2d2 | d4c2c4
AB | c4c2f2e2d2 | d4c2c4
cc | f2c2A2c4AA | B2A2G2f4
d2 | c4A2c2B2A2 | G4A2F4

